svg/regular/bx-move.svg

<svg xmlns="http://www.w3.org/2000/svg" width="24" height="24"><path d="M18 11h-5V6h3l-4-4-4 4h3v5H6V8l-4 4 4 4v-3h5v5H8l4 4 4-4h-3v-5h5v3l4-4-4-4z"/></svg>

<svg xmlns="http://www.w3.org/2000/svg" width="24" height="24" viewBox="0 0 24 24"><path d="M18 11L13 11 13 6 16 6 12 2 8 6 11 6 11 11 6 11 6 8 2 12 6 16 6 13 11 13 11 18 8 18 12 22 16 18 13 18 13 13 18 13 18 16 22 12 18 8z"/></svg>
